X: 25283
T: Man Of The House, The
R: reel
M: 4/4
K: Dminor
|:D2 AD (3EFG AF|(3DDD AF GECE|D2AD (3EFG Ad|1 c{dc}AGB AGFE:|2 c{dc}AGB ADFA||
defd efge|fedc dcAc|~d3 e ~f3 a|gece fdde|
fcAc fgaf|gfaf gfdf|afgf dfce|dAAG (3EFG AF||

